X:2083
T:Polsk
T:(Totakt-pols, nr. HCA-162)
S:efter Hans Christian Andersen
O:Agerkrog, Tistrup, Ribe amt
R:Totakt-pols
Z:ABC-transkribering av Åke Persson
M:2/4
L:1/8
Q:1/4=100
K:G
g |: {a}gf/g/ b>g | {a}gf/g/ d>B | ceAc | B/c/d/B/ Gg |{a}gf/g/ b>g | {a}gf/g/ d>B | cedF |1 G2 zg :|2 G2 z2 |]
|: G,cG,c | G,BBz | A/c/c/A/ F/G/A/F/ | GBDg | ecec | BddB/G/ |A/B/c/A/ FA | G2 z2 :|
(:musicend:)

(:music:)
